X: 1045
T: Hicazaşîrân Seyir
C: Şefik Gürmeriç
O: Turkey
F: http://compmusic.upf.edu/node/140
N: hicazasiran--seyir--sofyan--1--sefik_gurmeric
N: makam= hicazasiran
N: form= seyir
N: usul= sofyan = 4/4
M: 4/4
L: 1/16
K: C _7/8B ^f ^c 
Q: 1/4=60
%%MIDI tuningsystem comma53
d6c2 d4 e2=f2  | e2d2 c2B2 A8  | z2d4e2 f2g2 (3a2g2f2  | \
w:   |   |   | 
f3e e=fed d8  | 
w:   | 
z2e4=f2 e2d2 c4  | z2d4e2 c2B2 A4  | \
w:   |   | 
z2g4gf f3e d4  | c2d2 egfe e8  | 
w:   |   | 
z2=f4f2 f2e4d2  | dcde d2c2 B3A G4  | \
w:   |   | 
z4 =c2c2 c2=B4A2  | 
w:   | 
A2G2 G2F2 F2E2 D4  | z4 E2F2 E4 F4  | \
w:   |   | 
G4 A2=B2 A4 G2F2  | F2E2 D2E2 D4 G2FE  | 
w:   |   | 
E16  | |


